icons/label-list.svg

<svg xmlns="http://www.w3.org/2000/svg" width="24" height="24" viewBox="0 0 24 24">
  <path d="M15.0924635,4 C15.6691887,4 16.2178408,4.24896086 16.5976169,4.68299078 L21.8476169,10.6829908 C22.5074124,11.4370428 22.5074124,12.5629572 21.8476169,13.3170092 L16.5976169,19.3170092 C16.2178408,19.7510391 15.6691887,20 15.0924635,20 L4,20 C2.8954305,20 2,19.1045695 2,18 L2,6 C2,4.8954305 2.8954305,4 4,4 L15.0924635,4 Z M14,13 L6,13 L5.88337887,13.0067277 C5.38604019,13.0644928 5,13.4871642 5,14 C5,14.5522847 5.44771525,15 6,15 L6,15 L14,15 L14.1166211,14.9932723 C14.6139598,14.9355072 15,14.5128358 15,14 C15,13.4477153 14.5522847,13 14,13 L14,13 Z M14,9 L6,9 L5.88337887,9.00672773 C5.38604019,9.06449284 5,9.48716416 5,10 C5,10.5522847 5.44771525,11 6,11 L6,11 L14,11 L14.1166211,10.9932723 C14.6139598,10.9355072 15,10.5128358 15,10 C15,9.44771525 14.5522847,9 14,9 L14,9 Z"/>
</svg>

<svg xmlns="http://www.w3.org/2000/svg" viewBox="0 0 24 24">
  <path d="M15.1 4a2 2 0 0 1 1.5.68l5.25 6a2 2 0 0 1 0 2.64l-5.25 6a2 2 0 0 1-1.5.68H4a2 2 0 0 1-2-2V6c0-1.1.9-2 2-2h11.1zM14 13H5.88A1 1 0 0 0 6 15h8.12a1 1 0 0 0-.12-2zm0-4H5.88A1 1 0 0 0 6 11h8.12A1 1 0 0 0 14 9z"/>
</svg>
